carriers/bring.svg

<svg width="128" height="64" viewBox="0 0 128 64" fill="none" xmlns="http://www.w3.org/2000/svg">
<rect width="128" height="64" rx="6" fill="white"/>
<path fill-rule="evenodd" clip-rule="evenodd" d="M81.1629 28.7845H84.7673V25.2254H81.1629V28.7845ZM81.1629 45.5322H84.7673V30.18H81.1629V45.5322ZM109.503 42.32C106.824 42.32 106.281 41.3427 106.281 37.7529C106.281 34.162 106.824 33.0593 109.503 33.0593C112.598 33.0593 113.428 33.9106 113.428 37.7529C113.428 41.5948 112.598 42.32 109.503 42.32ZM113.746 30.1798V31.3905C112.535 30.3203 110.557 29.91 108.898 29.91C103.538 29.91 102.678 33.0913 102.678 37.7529C102.678 41.4382 103.029 45.5322 108.93 45.5322C110.429 45.5322 112.279 45.1855 113.395 44.1772C113.395 44.965 113.428 46.0735 113.333 46.8608C113.14 48.3093 111.641 48.939 109.568 48.939C107.558 48.939 106.922 48.3795 106.922 47.2768H102.997C102.997 51.1834 106.537 51.9633 109.663 51.9633C112.535 51.9633 116.299 51.2075 116.873 47.5538C117 46.7027 117 45.3118 117 43.8944V30.1798H113.746ZM94.7299 29.91C92.5292 29.91 91.126 30.603 90.2321 31.3905V30.1798H87.1061V45.5322H90.7103V38.3824C90.7103 35.7057 90.4238 33.0593 94.315 33.0593C97.4425 33.0593 97.1545 34.4771 97.1545 37.4376V45.5322H100.76V37.154C100.76 33.8161 101.015 29.91 94.7299 29.91ZM74.3946 29.91C72.5754 29.91 71.1404 30.4772 70.1191 31.5488V30.1798H66.9937V45.5322H70.5981V38.8551C70.5981 37.6584 70.5345 35.9576 70.9499 34.8552C71.3317 33.8161 72.2575 33.0286 73.7565 33.0286C75.2565 33.0286 75.851 33.3434 75.851 34.7609H79.4344C79.4344 31.3905 77.7444 29.91 74.3946 29.91ZM58.2681 42.5716C55.1733 42.5716 54.2799 41.7213 54.2799 37.879C54.2799 34.0352 55.1733 33.1856 58.2681 33.1856C60.9475 33.1856 61.5212 34.288 61.5212 37.879C61.5212 41.4695 60.9475 42.5716 58.2681 42.5716ZM59.0649 29.91C57.3747 29.91 55.5238 30.0995 54.3437 31.2967V25.2151H50.7393V45.5322H53.9921V44.3037C54.9494 45.1533 56.418 45.7833 58.491 45.7833C64.711 45.7833 65.1251 41.6266 65.1251 37.879C65.1251 33.2171 64.3923 29.91 59.0649 29.91Z" fill="#7BC144"/>
<path fill-rule="evenodd" clip-rule="evenodd" d="M21.2306 38.2049C16.5894 38.2049 12.787 34.6708 12.4265 30.18H11C11.3715 39.4912 19.1299 46.9279 28.6517 46.9279C34.9067 46.9279 40.4012 43.7183 43.5402 38.8762C45.1793 36.3477 46.1761 33.3742 46.3037 30.18H30.0345C29.674 34.6708 25.8716 38.2049 21.2306 38.2049Z" fill="#C1C1C1"/>
<path fill-rule="evenodd" clip-rule="evenodd" d="M12.4265 28.7842C12.787 24.2934 16.5894 20.7593 21.2306 20.7593C25.8716 20.7593 29.674 24.2934 30.0345 28.7842H46.3037C45.9317 19.473 38.173 12.0367 28.6517 12.0367C19.1302 12.0367 11.3718 19.473 11 28.7842H12.4265Z" fill="#7BC144"/>
</svg>

<svg xmlns="http://www.w3.org/2000/svg" width="128" height="64" fill="none"><rect width="128" height="64" fill="#fff" rx="6"/><path fill="#7BC144" fill-rule="evenodd" d="M81.163 28.785h3.604v-3.56h-3.604v3.56Zm0 16.747h3.604V30.18h-3.604v15.352Zm28.34-3.212c-2.679 0-3.222-.977-3.222-4.567 0-3.591.543-4.694 3.222-4.694 3.095 0 3.925.852 3.925 4.694s-.83 4.567-3.925 4.567Zm4.243-12.14v1.21c-1.211-1.07-3.189-1.48-4.848-1.48-5.36 0-6.22 3.181-6.22 7.843 0 3.685.351 7.78 6.252 7.78 1.499 0 3.349-.348 4.465-1.356 0 .788.033 1.897-.062 2.684-.193 1.448-1.692 2.078-3.765 2.078-2.01 0-2.646-.56-2.646-1.662h-3.925c0 3.906 3.54 4.686 6.666 4.686 2.872 0 6.636-.755 7.21-4.41.127-.85.127-2.241.127-3.659V30.18h-3.254Zm-19.016-.27c-2.2 0-3.604.693-4.498 1.48v-1.21h-3.126v15.352h3.604v-7.15c0-2.676-.286-5.323 3.605-5.323 3.127 0 2.84 1.418 2.84 4.379v8.094h3.605v-8.378c0-3.338.255-7.244-6.03-7.244Zm-20.335 0c-1.82 0-3.255.567-4.276 1.639v-1.37h-3.125v15.353h3.604v-6.677c0-1.197-.064-2.897.352-4 .382-1.039 1.307-1.826 2.806-1.826 1.5 0 2.095.314 2.095 1.732h3.583c0-3.37-1.69-4.851-5.04-4.851ZM58.268 42.572c-3.095 0-3.988-.85-3.988-4.693 0-3.844.893-4.693 3.988-4.693 2.68 0 3.253 1.102 3.253 4.693 0 3.59-.574 4.693-3.253 4.693Zm.797-12.662c-1.69 0-3.541.19-4.721 1.387v-6.082h-3.605v20.317h3.253v-1.228c.957.85 2.426 1.48 4.499 1.48 6.22 0 6.634-4.157 6.634-7.905 0-4.662-.733-7.969-6.06-7.969Z" clip-rule="evenodd"/><path fill="#C1C1C1" fill-rule="evenodd" d="M21.23 38.205c-4.64 0-8.443-3.534-8.803-8.025H11c.371 9.311 8.13 16.748 17.652 16.748 6.255 0 11.75-3.21 14.888-8.052a17.205 17.205 0 0 0 2.764-8.696h-16.27c-.36 4.49-4.162 8.025-8.803 8.025Z" clip-rule="evenodd"/><path fill="#7BC144" fill-rule="evenodd" d="M12.427 28.784c.36-4.49 4.162-8.025 8.804-8.025 4.64 0 8.443 3.534 8.803 8.025h16.27c-.372-9.311-8.131-16.747-17.652-16.747-9.522 0-17.28 7.436-17.652 16.747h1.427Z" clip-rule="evenodd"/></svg>
